X:2
T:Évit Gabriel
R:reel
Z:transcribed to ABC by Debby Knight
M:C|
L:1/8
K:Em
"Em"EFGF EFGF | EFGA B2AB |"Am"cBAG F2GA |"B7"BAGB F4 |
"Em"EFGF EFGF | EFGA B2AB | "Am"cBAG "B7"FBGF | "Em"EG"B7"FD "Em"E4 :|
|: "Am"eAAe "D"dcBc | "G"dGGd "C"cBAG | "F#m"FGAc "B"BAGF | "Em"GFGA "E7"B2cd |
"Am"eAAe "D"dcBc | "G"dGGd "C"cBAG |["Normal" "F#m"FGAc "B"BAGF| "Em"GA"B7"FG "Em"E4 :|
["Trans" "F#m"Fz3 "No chord"FGA^c| B^cde fedc|]
